X:1
T:Bach Crucifixus (from the B Minor mass, BWV232)
T:Bach Crucifixus (from the B Minor mass, BWV232)
T:Bach Crucifixus (from the Mass in B minor, BWV 232) 
T:Ground Bass Repertoire Example Included: Harmonic reduction; Figures (based on BSG); Roman Numerals. Omitted: Quarter note suspensions; details of voicing and instrumentation . 
T:CC0 1.0 Universal (Public Domain). Mark Gotham and FourScoreAndMore.org waive all rights to this document.
T:CC0 1.0 Universal (Public Domain). Mark Gotham and FourScoreAndMore.org waive all rights to this document.
T:CC0 1.0 Universal (Public Domain). Mark Gotham and FourScoreAndMore.org waive all rights to this document.
Z:CC0 1.0 Universal (Public Domain). Mark Gotham and FourScoreAndMore.org waive all rights to this document.
%%score { 1 | 2 }
L:1/8
M:3/2
K:G
V:1 treble nm="Reduction"
V:2 bass 
V:1
"C.e.i" [EGB]4 [Bg]4"CVI6" [EGce]4 |"Cviio7" [FAc]4"Cv6" [Bf]4 [B,FB]4 | %2
"C#viø7" [EGB]4"Civ6" [Ae]4"Ciiø43" [EFA]4 |"Ci64" [EGB]4"CV7" [^DFB]4 [B,DFA]4 | %4
"Ci" [B,EG]4"CVI6" [Gcg]4 [EGce]4 |"Cviio7" [FAc]4"Cviio43/iv" [B=f^g]4 [=F^GB]4 | %6
"C#vi7#5b4" [=F^GB]4"Civ6" [Aea]4"Ciiø43" [E^FA]4 |"CV" [^DFB]4 [B^db]4 [Bdf]4 | %8
"Ci" [EGB]4"CVI6" [Gce]4 [Gceg]4 |"Cviio7" [Acf]4"Cviio43/iv" [=F^GB]4"Cviio64/iv" [Bd^g]4 | %10
"CIV6" [Aea]4"Civ6" [Ae]4"Ciio64" [Afa]4 |"CV7" [FAB^d]4 [Bdfb]4 [Bdf]4 | %12
"Ci" [Beg]4 [EGB]4"Cviio43/v" [^A^cg]4 |"CV6" [FBf]4"Civ7/iv" [=FAc]4"Cviio43/iv" [^GB=f]4 | %14
"CIV6" [EAe]4"Civ6" [EA]4"C.Fr43" [EF^Ae]4 |"Ci64" [EGBe]4"CV" [B^df]4"CV7" [Bdfa]4 | %16
"CIII+65/iv" [Bce^g]4"Civ64" [cea]4"CVI6" [ce=gc']4 |"Cviio" [Af]4"CIII64" [Bgb]4"Cv6" [B,FB]4 | %18
"C#viø7" [B,EG]4"Ciiø43" [EFA]4"Civ6" [Aea]4 |"CV" [F,B,^D]4 [B^df]4 [FBd]4 | %20
"Ci" [EGBe]4"CVI6" [ceg]4 [CEGc]4 |"Cviio7" [FAc]4"Cviio43/iv" [=F^GB]4 [B=f^gb]4 | %22
"CIV6" [EA]4"CVI7" [GBe]4"Ciiø43" [Acefa]4 |"Ci54" [B,EFB]4"CV7" [^DFA^d]4"C.a.ii%7" [AB=df]4 | %24
"CV7" [Bde^g]4"CI64" [A^ce]4"C.e.VI6" [EG=c]4 |"Cviio7" [CFAc]4"Cviio43/iv" [^GB=f]4 [=FGB]4 | %26
"CIV6" [EA]4"CVI" [EGe]4"Ciiø43" [A,EFA]4 |"Ci64" [B,EG]4"CV" [^DFB]4"CV7" [AB^df]4 | %28
"Ci" [GBeg]4"C.b.V42" [^A^cf]4 [FAc]4 |"CI6" [B,FB]4"C.a.V42" [E^GB]4 [EGBe]4 | %30
"CI6" [EA]4"C.e.iiø43" [FAe]4"Cviio43#2" [EFA^d]4 |"CV7" [A^df]4 [B,^DFA]4 [FAd]4 | %32
"Ci" [Begb]4"Cviio#7642" [^DFAc]4"CVI6" [Gcg]4 |"Cviio7" [Acf]4"C.D.ii42" [EGB]4 [EGBe]4 | %34
"Cviiø7" [GBe]4"C.e.viio643#2" [^DFAe]4"Civ6" [Acea]4 |"CV" [^DFB]4 [B^df]4 [Bdfb]4 | %36
"Ci" [Beg]4"CVI6" [CEGc]4"Ciiø42" [FAc]4 |"Cviio" [FA]4"C.bvii#5b3" [=F^A]4"Cvø65b3" [F=AB]4 | %38
"C#vi7#5b4" [=F^GB]4"Cviio4#2" [^D^FA]4"Civ6" [EAe]4 | %39
"C.a.iiø7" [=FAd]4"Cii9b5" [Ac=f]4"Ciiø7b5" [FABd]4 |"CV9" [D=F^GB]4 [=f^gb]4"CV7" [Bdeg]4 | %41
"C.e.viio7" [A,CF]4"Cv6" [Bf]4 [Bfb]4 |"C#vio7" [B,EG]4"Ciiø43" [FAe]4"Civ6" [CEA]4 | %43
"Ci64" [EGB]4"Cv" [DFB]4 [FBd]4 |"CVI6" [EGc]4 [Gc]4 [Gcg]4 | %45
"Cviio7" [Fc]4"Cv6" [Bd]4"Cviio43/iv" [B=f^gb]4 | %46
"C#vi7#5" [E^GB]4"Ciiø43" [FAe]4"Cviio4#2" [FAc^df]4 | %47
"Ci64" [B,EG]2"Civ" [CE]2"CV" [^DFAB]4 [A,B,DF]4 |"Ci" [G,B,EG]4"CVI6" [CE]4 [CEG]4 | %49
"Cviio7" [CF]4"Cv6" [B,F]4"Cviio43/iv" [^G,B,=F]4 | %50
"C#vi7#5" [^G,B,E]4"Civ6" [A,CE]4"C.G.Ger65" [=G,_B,_E]4 | %51
"CI54" [G,A,D]4"CV74" [G,A,C]4"CV7" [F,A,C]4 |"CI" [G,B,]12 |] %53
V:2
 E,,2 E,,2 E,2 E,2 E,2 E,2 | ^D,2 D,2 =D,2 D,2 D,2 D,2 | ^C,2 C,2 =C,2 C,2 C,2 C,2 | %3
 B,,2 B,,2 B,,2 B,,2 B,,2 B,,2 | E,,2 E,,2 E,2 E,2 E,2 E,2 | ^D,2 D,2 =D,2 D,2 D,2 D,2 | %6
 ^C,2 C,2 =C,2 C,2 C,2 C,2 | B,,2 B,,2 B,,2 B,,2 B,,2 B,,2 | E,,2 E,,2 E,2 E,2 E,2 E,2 | %9
 ^D,2 D,2 =D,2 D,2 D,2 D,2 | ^C,2 C,2 =C,2 C,2 C,2 C,2 | B,,2 B,,2 B,,2 B,,2 B,,2 B,,2 | %12
 E,,2 E,,2 E,2 E,2 E,2 E,2 | ^D,2 D,2 =D,2 D,2 D,2 D,2 | ^C,2 C,2 =C,2 C,2 C,2 C,2 | %15
 B,,2 B,,2 B,,2 B,,2 B,,2 B,,2 | E,,2 E,,2 E,2 E,2 E,2 E,2 | ^D,2 D,2 =D,2 D,2 D,2 D,2 | %18
 ^C,2 C,2 =C,2 C,2 C,2 C,2 | B,,2 B,,2 B,,2 B,,2 B,,2 B,,2 | E,,2 E,,2 E,2 E,2 E,2 E,2 | %21
 ^D,2 D,2 =D,2 D,2 D,2 D,2 | ^C,2 C,2 =C,2 C,2 C,2 C,2 | B,,2 B,,2 B,,2 B,,2 B,,2 B,,2 | %24
 E,,2 E,,2 E,2 E,2 E,2 E,2 | ^D,2 D,2 =D,2 D,2 D,2 D,2 | ^C,2 C,2 =C,2 C,2 C,2 C,2 | %27
 B,,2 B,,2 B,,2 B,,2 B,,2 B,,2 | E,,2 E,,2 E,2 E,2 E,2 E,2 | ^D,2 D,2 =D,2 D,2 D,2 D,2 | %30
 ^C,2 C,2 =C,2 C,2 C,2 C,2 | B,,2 B,,2 B,,2 B,,2 B,,2 B,,2 | E,,2 E,,2 E,2 E,2 E,2 E,2 | %33
 ^D,2 D,2 =D,2 D,2 D,2 D,2 | ^C,2 C,2 =C,2 C,2 C,2 C,2 | B,,2 B,,2 B,,2 B,,2 B,,2 B,,2 | %36
 E,,2 E,,2 E,2 E,2 E,2 E,2 | ^D,2 D,2 =D,2 D,2 D,2 D,2 | ^C,2 C,2 =C,2 C,2 C,2 C,2 | %39
 B,,2 B,,2 B,,2 B,,2 B,,2 B,,2 | E,,2 E,,2 E,2 E,2 E,2 E,2 | ^D,2 D,2 =D,2 D,2 D,2 D,2 | %42
 ^C,2 C,2 =C,2 C,2 C,2 C,2 | B,,2 B,,2 B,,2 B,,2 B,,2 B,,2 | E,,2 E,,2 E,2 E,2 E,2 E,2 | %45
 ^D,2 D,2 =D,2 D,2 D,2 D,2 | ^C,2 C,2 =C,2 C,2 C,2 C,2 | B,,2 A,,2 B,,2 B,,2 B,,2 B,,2 | %48
 E,,2 E,,2 E,2 E,2 E,2 E,2 | ^D,2 D,2 =D,2 D,2 D,2 D,2 | ^C,2 C,2 =C,2 C,2 ^C,2 C,2 | %51
 D,2 D,2 D,2 D,2 D,2 D,2 | [G,,D,G,]12 |] %53

